X: 4048
T: JOHNNY WON'T YOU MARRY ME
R: Strathspey.
%R: strathspey
B: James Kerr "Merry Melodies" v.4 p.08 #48
Z: 2016 John Chambers <jc:trillian.mit.edu>
M: C
L: 1/8
K: D
|:\
A2 (A/B/c) d>ef2 | d>BB>A (d<B)B2 |\
A2 (A/B/c) d>ef2 | g>b (a/g/f) e2d2 ::\
(f/g/a) a>g f>ga2 |
(g<b) b>a g>ab2 |\
[1 (f/g/a) a>g f>ga2 | g>b (a/g/f) e2d2 :|\
[2 a2a>f d>ef>a | (3gag (3fgf (3efe (3dcB |]

%%sep 1 1 500
%%sep 1 1 500

